dist/icons/big.svg

<svg width="14" height="15" viewBox="0 0 14 15" version="1.1" xmlns="http://www.w3.org/2000/svg" xmlns:xlink="http://www.w3.org/1999/xlink" xmlns:figma="http://www.figma.com/figma/ns">
<g id="Canvas" transform="translate(-1516 -475)" figma:type="canvas">
<g id="Group" figma:type="frame">
<g id="Direction Inbound" figma:type="frame">
<g id="Vector" figma:type="vector">
<use xlink:href="#path0_fill" transform="matrix(-1.83697e-16 -1 1 -1.83697e-16 1518.83 480.933)" fill="#FFFFFF"/>
</g>
</g>
<g id="BIG" figma:type="vector">
<use xlink:href="#path1_fill" transform="translate(1516.54 482.483)" fill="#FFFFFF"/>
<use xlink:href="#path2_fill" transform="translate(1516.54 482.483)" fill="#FFFFFF"/>
<use xlink:href="#path3_fill" transform="translate(1516.54 482.483)" fill="#FFFFFF"/>
</g>
</g>
</g>
<defs>
<path id="path0_fill" d="M 2.66667 0L 2.19667 0.64625L 4.05667 3.20833L 0 3.20833L 0 4.125L 4.05667 4.125L 2.19667 6.68708L 2.66667 7.33333L 5.33333 3.66667L 2.66667 0Z"/>
<path id="path1_fill" d="M 0 0.0922852L 1.90723 0.0922852C 2.79199 0.0922852 3.43066 0.221191 3.82324 0.479004C 4.21875 0.736816 4.4165 1.14404 4.4165 1.70068C 4.4165 2.07568 4.31982 2.3877 4.12646 2.63672C 3.93311 2.88574 3.65479 3.04248 3.2915 3.10693L 3.2915 3.15088C 3.74268 3.23584 4.07373 3.4043 4.28467 3.65625C 4.49854 3.90527 4.60547 4.24365 4.60547 4.67139C 4.60547 5.24854 4.40332 5.70117 3.99902 6.0293C 3.59766 6.35449 3.03809 6.51709 2.32031 6.51709L 0 6.51709L 0 0.0922852ZM 1.05029 2.74658L 2.06104 2.74658C 2.50049 2.74658 2.82129 2.67773 3.02344 2.54004C 3.22559 2.39941 3.32666 2.16211 3.32666 1.82812C 3.32666 1.52637 3.2168 1.30811 2.99707 1.17334C 2.78027 1.03857 2.43457 0.971191 1.95996 0.971191L 1.05029 0.971191L 1.05029 2.74658ZM 1.05029 3.59912L 1.05029 5.63379L 2.1665 5.63379C 2.60596 5.63379 2.93701 5.55029 3.15967 5.3833C 3.38525 5.21338 3.49805 4.94678 3.49805 4.5835C 3.49805 4.24951 3.38379 4.00195 3.15527 3.84082C 2.92676 3.67969 2.57959 3.59912 2.11377 3.59912L 1.05029 3.59912Z"/>
<path id="path2_fill" d="M 5.40141 6.51709L 5.40141 0.0922852L 6.4517 0.0922852L 6.4517 6.51709L 5.40141 6.51709Z"/>
<path id="path3_fill" d="M 10.2403 3.03223L 12.6046 3.03223L 12.6046 6.25781C 12.2179 6.38379 11.8458 6.47314 11.4884 6.52588C 11.1339 6.57861 10.7501 6.60498 10.337 6.60498C 9.36434 6.60498 8.61434 6.31787 8.08699 5.74365C 7.55965 5.1665 7.29598 4.35352 7.29598 3.30469C 7.29598 2.27051 7.59334 1.46191 8.18807 0.878906C 8.78279 0.292969 9.60164 0 10.6446 0C 11.3155 0 11.9513 0.128906 12.5518 0.386719L 12.1827 1.26123C 11.6612 1.021 11.1397 0.900879 10.6182 0.900879C 9.9327 0.900879 9.3907 1.11621 8.99227 1.54688C 8.59383 1.97754 8.39461 2.56641 8.39461 3.31348C 8.39461 4.09863 8.57332 4.69629 8.93074 5.10645C 9.29109 5.51367 9.80818 5.71729 10.482 5.71729C 10.8219 5.71729 11.1851 5.6748 11.5719 5.58984L 11.5719 3.93311L 10.2403 3.93311L 10.2403 3.03223Z"/>
</defs>
</svg>

<svg xmlns="http://www.w3.org/2000/svg" width="14" height="15" viewBox="0 0 14 15" fill="#fff">
<path transform="rotate(-90 4.38 1.552)" d="M2.667 0l-.47.646 1.86 2.562H0v.917h4.057l-1.86 2.562.47.646 2.666-3.666L2.667 0z"/>
<g transform="translate(.54 7.483)">
<path id="b" d="M0 .092h1.907c.885 0 1.524.13 1.916.387.396.257.594.664.594 1.22 0 .376-.097.688-.29.937-.194.25-.472.405-.835.47v.044c.45.086.782.254.993.506.214.25.32.588.32 1.015 0 .58-.202 1.03-.606 1.36-.402.324-.962.487-1.68.487H0V.092zm1.05 2.655h1.01c.44 0 .76-.07.963-.207.203-.14.304-.378.304-.712 0-.302-.11-.52-.33-.655C2.78 1.04 2.435.97 1.96.97h-.91v1.777zm0 .852v2.034h1.117c.44 0 .77-.084.993-.25.225-.17.338-.437.338-.8 0-.334-.114-.582-.343-.743-.228-.16-.575-.24-1.04-.24H1.05z"/>
<path d="M5.4 6.517V.092h1.052v6.425h-1.05z"/>
<path d="M10.24 3.032h2.365v3.226c-.387.126-.76.215-1.117.268-.354.053-.738.08-1.15.08-.974 0-1.724-.288-2.25-.862-.528-.577-.792-1.39-.792-2.44 0-1.033.297-1.842.892-2.425C8.783.292 9.602 0 10.645 0c.67 0 1.306.13 1.907.387l-.37.874C11.663 1.02 11.14.9 10.62.9c-.685 0-1.227.216-1.626.647-.398.43-.597 1.02-.597 1.766 0 .786.178 1.383.536 1.793.36.408.878.61 1.552.61.34 0 .703-.04 1.09-.126V3.933H10.24v-.9z"/>
</g>
</svg>
